X: 7611
T: Coilleach Rua Na Mire
R: strathspey
M: 4/4
K: Amixolydian
|:a>f|e>A (3cBA G>A (3Bcd|e>A (3cBA G2 a>f|e>A (3cBA G>A (3Bcd|(3efe d>B (3ABA:|
|:(3Bcd|e>aa>g a2 g>e|d>BG>A B>GB>d|(3efg f>a g>fg>d|(3efe d>B (3ABA:|

